build/images/header/all.svg

<svg width="1202" height="84" preserveAspectRatio="none" viewBox="0 0 1202 84" fill="none" xmlns="http://www.w3.org/2000/svg">
<ellipse cx="1158.98" cy="61.5" rx="4.50188" ry="4.5" stroke="white"/>
<path d="M1154.98 62H534.724L512.715 40H281.619L259.609 61.6" stroke="white"/>
<ellipse cx="256.607" cy="64.5" rx="4.50188" ry="4.5" stroke="white"/>
<ellipse cx="75.5303" cy="2.5" rx="2.50104" ry="2.5" fill="white"/>
<path d="M20.7247 81.5V82H20.4994L20.3502 81.8312L20.7247 81.5ZM1.14862 61.7757L0.80249 62.1365L0.650452 61.9907L0.648621 61.78L1.14862 61.7757ZM1.14862 2.5L0.648682 2.49194L0.656616 2H1.14862V2.5ZM260.608 81.5L260.961 81.8536L260.815 82H260.608V81.5ZM285.618 56.5L285.265 56.1464L285.411 56H285.618V56.5ZM102.542 82H20.7247V81H102.542V82ZM20.3502 81.8312C17.6013 78.723 12.7191 73.8033 8.51398 69.6515C6.41354 67.5776 4.4855 65.6987 3.08252 64.3382C2.38107 63.658 1.81094 63.1075 1.41623 62.727C1.21887 62.5368 1.06537 62.3891 0.961243 62.289C0.90918 62.239 0.869476 62.2008 0.842773 62.1752C0.829437 62.1624 0.819336 62.1527 0.812622 62.1462C0.809235 62.143 0.806702 62.1405 0.805023 62.1389C0.804169 62.1381 0.803528 62.1375 0.803131 62.1371C0.802917 62.1369 0.802765 62.1368 0.802643 62.1367C0.802551 62.1366 0.80249 62.1365 1.14862 61.7757C1.49472 61.4148 1.49478 61.4149 1.4949 61.415C1.495 61.4151 1.49518 61.4153 1.49539 61.4155C1.49582 61.4159 1.49646 61.4165 1.49734 61.4173C1.49905 61.419 1.50162 61.4214 1.50504 61.4247C1.51184 61.4312 1.522 61.441 1.5354 61.4539C1.56223 61.4796 1.60208 61.5179 1.6543 61.5681C1.75873 61.6685 1.91254 61.8165 2.1102 62.007C2.50555 62.3881 3.07642 62.9393 3.77869 63.6203C5.18317 64.9823 7.11346 66.8634 9.21658 68.9399C13.4186 73.0888 18.3245 78.0313 21.0992 81.1688L20.3502 81.8312ZM1.14862 61.7757C0.648621 61.78 0.648621 61.7799 0.648621 61.7796C0.648621 61.7793 0.648621 61.7788 0.648621 61.7782C0.64859 61.7771 0.64859 61.7753 0.64856 61.773C0.648529 61.7683 0.648468 61.7613 0.648376 61.752C0.648224 61.7334 0.64798 61.7056 0.647675 61.6688C0.647064 61.5952 0.646149 61.4858 0.644958 61.3422C0.642578 61.055 0.63916 60.6311 0.634888 60.0842C0.626404 58.9903 0.614624 57.4046 0.601532 55.4369C0.575378 51.5015 0.544006 46.0381 0.523071 39.9256C0.481232 27.7019 0.481201 12.8787 0.648682 2.49194L1.64856 2.50806C1.48126 12.8841 1.48123 27.6987 1.52307 39.9222C1.54398 46.0333 1.57538 51.4957 1.60153 55.4303C1.61459 57.3976 1.62637 58.9829 1.63486 60.0764C1.6391 60.6231 1.64255 61.0469 1.64493 61.334C1.64609 61.4775 1.64703 61.5868 1.64764 61.6603C1.64795 61.697 1.64819 61.7248 1.64835 61.7434C1.64844 61.7527 1.6485 61.7597 1.64853 61.7643C1.64856 61.7667 1.64856 61.7684 1.64859 61.7696C1.64859 61.7702 1.64859 61.7706 1.64859 61.7709C1.64859 61.7712 1.64859 61.7713 1.14862 61.7757ZM1.14862 2H73.0298V3H1.14862V2ZM102.542 81H260.608V82H102.542V81ZM260.255 81.1464L285.265 56.1464L285.972 56.8536L260.961 81.8536L260.255 81.1464ZM285.618 56H381.158V57H285.618V56Z" fill="white"/>
<path d="M1.50127 70V68.7932L2.35475 69.6464L13.3593 80.6464L14.2133 81.5H13.0059H2.00127H1.50127V81V70Z" fill="white" stroke="white"/>
<path d="M375.156 62.0002C375.596 60.0935 377.357 56.7202 382.199 56.7202" stroke="white" stroke-width="0.88"/>
<path d="M375.156 50.9998C375.596 52.9065 377.357 56.2798 382.199 56.2798" stroke="white" stroke-width="0.88"/>
<g clip-path="url(#clip0_821_1542)">
<path d="M947.974 82.7868C947.222 83.564 946.215 83.9987 945.167 83.9985H942.393L947.604 78.4602C948.04 77.9971 948.557 77.6299 949.126 77.3793C949.695 77.1288 950.305 76.9999 950.92 77H953.557L947.974 82.7868ZM960.754 77H958.118C957.502 77 956.892 77.129 956.323 77.3795C955.754 77.63 955.238 77.9972 954.802 78.4602L949.589 84H952.363C953.412 84.0004 954.419 83.5656 955.17 82.7883L960.754 77ZM967.95 77H965.314C964.698 77 964.089 77.129 963.52 77.3795C962.951 77.63 962.434 77.9972 961.998 78.4602L956.785 84H959.557C960.605 84.0004 961.612 83.5656 962.363 82.7883L967.95 77ZM975.147 77H972.51C971.895 77 971.285 77.129 970.716 77.3795C970.147 77.63 969.63 77.9972 969.195 78.4602L963.981 84H966.755C967.803 84.0004 968.81 83.5656 969.561 82.7883L975.147 77ZM982.343 77H979.707C979.091 76.9999 978.481 77.1288 977.912 77.3793C977.343 77.6299 976.826 77.9971 976.391 78.4602L971.172 84H973.946C974.994 84.0004 976.002 83.5656 976.753 82.7883L982.343 77ZM989.539 77H986.903C986.287 76.9999 985.677 77.1288 985.108 77.3793C984.539 77.6299 984.022 77.9971 983.587 78.4602L978.367 84H981.141C982.189 84.0004 983.196 83.5656 983.947 82.7883L989.539 77ZM996.735 77H994.099C993.481 76.9982 992.869 77.1263 992.298 77.3768C991.727 77.6274 991.208 77.9956 990.771 78.4602L985.562 84H988.336C989.385 84.0002 990.392 83.5655 991.143 82.7883L996.735 77ZM1003.93 77H1001.3C1000.68 76.9982 1000.07 77.1263 999.494 77.3768C998.923 77.6274 998.404 77.9956 997.967 78.4602L992.757 84H995.531C996.579 84.0002 997.586 83.5655 998.338 82.7883L1003.93 77ZM1011.13 77H1008.49C1007.87 76.9983 1007.26 77.1264 1006.69 77.377C1006.12 77.6276 1005.6 77.9957 1005.16 78.4602L999.951 84H1002.73C1003.77 84.0002 1004.78 83.5655 1005.53 82.7883L1011.13 77ZM1018.32 77H1015.69C1015.07 76.9982 1014.46 77.1262 1013.89 77.3768C1013.32 77.6274 1012.8 77.9956 1012.36 78.4602L1007.15 84H1009.92C1010.97 84.0004 1011.98 83.5656 1012.73 82.7883L1018.32 77ZM1025.52 77H1022.88C1022.27 76.9982 1021.65 77.1262 1021.08 77.3768C1020.51 77.6274 1019.99 77.9956 1019.56 78.4602L1014.34 84H1017.12C1018.17 84.0004 1019.17 83.5656 1019.92 82.7883L1025.52 77ZM1032.72 77H1030.08C1029.46 76.9982 1028.85 77.1263 1028.28 77.3768C1027.71 77.6274 1027.19 77.9956 1026.75 78.4602L1021.54 84H1024.31C1025.36 84.0004 1026.37 83.5656 1027.12 82.7883L1032.72 77ZM1039.91 77H1037.28C1036.66 76.9999 1036.05 77.1288 1035.48 77.3793C1034.91 77.6299 1034.4 77.9971 1033.96 78.4602L1028.75 84H1031.52C1032.57 84.0004 1033.58 83.5656 1034.33 82.7883L1039.91 77ZM1047.11 77H1044.47C1043.86 76.9999 1043.25 77.1288 1042.68 77.3793C1042.11 77.6299 1041.59 77.9971 1041.16 78.4602L1035.94 84H1038.72C1039.77 84.0002 1040.77 83.5655 1041.53 82.7883L1047.11 77ZM1054.3 77H1051.67C1051.05 77 1050.44 77.1289 1049.87 77.3794C1049.31 77.63 1048.79 77.9972 1048.35 78.4602L1043.14 84H1045.92C1046.96 84.0002 1047.97 83.5655 1048.72 82.7883L1054.3 77ZM1061.5 77H1058.86C1058.25 77 1057.64 77.129 1057.07 77.3795C1056.5 77.63 1055.98 77.9972 1055.55 78.4602L1050.34 84H1053.11C1054.16 84.0002 1055.17 83.5655 1055.92 82.7883L1061.5 77ZM1068.7 77H1066.06C1065.45 76.9999 1064.84 77.1289 1064.27 77.3794C1063.7 77.6299 1063.18 77.9972 1062.75 78.4602L1057.51 84H1060.28C1061.33 84.0004 1062.34 83.5656 1063.09 82.7883L1068.7 77ZM1075.89 77H1073.26C1072.64 76.9999 1072.03 77.1288 1071.46 77.3793C1070.89 77.6299 1070.38 77.9971 1069.94 78.4602L1064.73 84H1067.5C1068.55 84.0004 1069.56 83.5656 1070.31 82.7883L1075.89 77ZM1083.09 77H1080.45C1079.84 76.9999 1079.23 77.1288 1078.66 77.3793C1078.09 77.6299 1077.57 77.9971 1077.14 78.4602L1071.93 84H1074.7C1075.75 84.0004 1076.75 83.5656 1077.51 82.7883L1083.09 77ZM1090.29 77H1087.65C1087.03 76.9999 1086.42 77.1288 1085.86 77.3793C1085.29 77.6299 1084.77 77.9971 1084.33 78.4602L1079.12 84H1081.9C1082.94 84.0004 1083.95 83.5656 1084.7 82.7883L1090.29 77ZM1097.48 77H1094.85C1094.23 77 1093.62 77.1289 1093.05 77.3794C1092.48 77.63 1091.97 77.9972 1091.53 78.4602L1086.32 84H1089.09C1090.14 84.0002 1091.15 83.5655 1091.9 82.7883L1097.48 77Z" fill="white"/>
</g>
<path d="M1201 70V68.7932L1200.15 69.6464L1189.14 80.6464L1188.29 81.5H1189.5H1200.5H1201V81V70Z" fill="white" stroke="white"/>
<ellipse cx="1128.97" cy="2.5" rx="2.50104" ry="2.5" fill="white"/>
<path d="M1098.96 81H1179.99L1201 60V2.5H1130.47" stroke="white"/>
<defs>
<clipPath id="clip0_821_1542">
<rect width="155.065" height="7" fill="white" transform="translate(942.393 77)"/>
</clipPath>
</defs>
</svg>

<svg width="1202" height="84" preserveAspectRatio="none" fill="none" xmlns="http://www.w3.org/2000/svg"><ellipse cx="1158.98" cy="61.5" rx="4.502" ry="4.5" stroke="#fff"/><path d="M1154.98 62H534.724l-22.009-22H281.619l-22.01 21.6" stroke="#fff"/><ellipse cx="256.607" cy="64.5" rx="4.502" ry="4.5" stroke="#fff"/><ellipse cx="75.53" cy="2.5" rx="2.501" ry="2.5" fill="#fff"/><path d="M20.725 81.5v.5h-.226l-.149-.169.375-.331zM1.149 61.776l-.347.36-.152-.145-.001-.211.5-.004zm0-59.276l-.5-.008L.657 2h.492v.5zm259.459 79l.353.354-.146.146h-.207v-.5zm25.01-25l-.353-.354.146-.146h.207v.5zM102.542 82H20.725v-1h81.817v1zm-82.192-.169c-2.749-3.108-7.63-8.028-11.836-12.18A856.87 856.87 0 00.961 62.29l-.118-.114a11.381 11.381 0 01-.03-.029l-.008-.007-.002-.002.346-.361.346-.361.002.002.008.008.03.029a107.689 107.689 0 01.575.553 860.433 860.433 0 017.106 6.933c4.203 4.149 9.109 9.091 11.883 12.229l-.749.662zM1.15 61.776l-.5.004v-.028l-.001-.083-.003-.327a2755.989 2755.989 0 01-.043-5.905c-.028-3.935-.059-9.399-.08-15.511C.481 27.702.481 12.879.65 2.492l1 .016c-.168 10.376-.168 25.19-.126 37.414a4878.428 4878.428 0 00.122 21.412l.003.326v.11l-.5.006zM1.149 2h71.88v1H1.15V2zm101.393 79h158.066v1H102.542v-1zm157.713.146l25.01-25 .707.708-25.011 25-.706-.708zM285.618 56h95.54v1h-95.54v-1z" fill="#fff"/><path d="M1.501 70v-1.207l.854.853 11.004 11 .854.854H1.501V70z" fill="#fff" stroke="#fff"/><path d="M375.156 62c.44-1.907 2.201-5.28 7.043-5.28M375.156 51c.44 1.907 2.201 5.28 7.043 5.28" stroke="#fff" stroke-width=".88"/><g clip-path="url(#clip0_821_1542)"><path d="M947.974 82.787a3.905 3.905 0 01-2.807 1.212h-2.774l5.211-5.539c.436-.463.953-.83 1.522-1.08a4.448 4.448 0 011.794-.38h2.637l-5.583 5.787zM960.754 77h-2.636c-.616 0-1.226.129-1.795.38a4.684 4.684 0 00-1.521 1.08L949.589 84h2.774a3.9 3.9 0 002.807-1.212L960.754 77zm7.196 0h-2.636c-.616 0-1.225.129-1.794.38a4.688 4.688 0 00-1.522 1.08L956.785 84h2.772a3.9 3.9 0 002.806-1.212L967.95 77zm7.197 0h-2.637a4.45 4.45 0 00-1.794.38 4.673 4.673 0 00-1.521 1.08L963.981 84h2.774a3.9 3.9 0 002.806-1.212L975.147 77zm7.196 0h-2.636a4.45 4.45 0 00-1.795.38 4.674 4.674 0 00-1.521 1.08L971.172 84h2.774a3.902 3.902 0 002.807-1.212l5.59-5.788zm7.196 0h-2.636a4.45 4.45 0 00-1.795.38 4.674 4.674 0 00-1.521 1.08l-5.22 5.54h2.774a3.9 3.9 0 002.806-1.212L989.539 77zm7.196 0h-2.636a4.446 4.446 0 00-1.801.377c-.571.25-1.09.619-1.527 1.083L985.562 84h2.774a3.901 3.901 0 002.807-1.212L996.735 77zm7.195 0h-2.63a4.48 4.48 0 00-1.806.377c-.571.25-1.09.619-1.527 1.083l-5.21 5.54h2.774a3.905 3.905 0 002.807-1.212L1003.93 77zm7.2 0h-2.64a4.432 4.432 0 00-1.8.377c-.57.25-1.09.619-1.53 1.083L999.951 84h2.779a3.9 3.9 0 002.8-1.212l5.6-5.788zm7.19 0h-2.63a4.43 4.43 0 00-1.8.377c-.57.25-1.09.619-1.53 1.083l-5.21 5.54h2.77c1.05 0 2.06-.434 2.81-1.212l5.59-5.788zm7.2 0h-2.64a4.464 4.464 0 00-1.8.377c-.57.25-1.09.619-1.52 1.083l-5.22 5.54h2.78a3.88 3.88 0 002.8-1.212l5.6-5.788zm7.2 0h-2.64a4.431 4.431 0 00-1.8.377c-.57.25-1.09.619-1.53 1.083l-5.21 5.54h2.77c1.05 0 2.06-.434 2.81-1.212l5.6-5.788zm7.19 0h-2.63c-.62 0-1.23.129-1.8.38-.57.25-1.08.617-1.52 1.08l-5.21 5.54h2.77c1.05 0 2.06-.434 2.81-1.212l5.58-5.788zm7.2 0h-2.64c-.61 0-1.22.129-1.79.38-.57.25-1.09.617-1.52 1.08l-5.22 5.54h2.78c1.05 0 2.05-.434 2.81-1.212l5.58-5.788zm7.19 0h-2.63c-.62 0-1.23.129-1.8.38-.56.25-1.08.617-1.52 1.08l-5.21 5.54h2.78a3.9 3.9 0 002.8-1.212L1054.3 77zm7.2 0h-2.64c-.61 0-1.22.129-1.79.38-.57.25-1.09.617-1.52 1.08l-5.21 5.54h2.77c1.05 0 2.06-.434 2.81-1.212L1061.5 77zm7.2 0h-2.64c-.61 0-1.22.129-1.79.38-.57.25-1.09.617-1.52 1.08l-5.24 5.54h2.77c1.05 0 2.06-.434 2.81-1.212L1068.7 77zm7.19 0h-2.63c-.62 0-1.23.129-1.8.38-.57.25-1.08.617-1.52 1.08l-5.21 5.54h2.77c1.05 0 2.06-.434 2.81-1.212l5.58-5.788zm7.2 0h-2.64c-.61 0-1.22.129-1.79.38-.57.25-1.09.617-1.52 1.08l-5.21 5.54h2.77c1.05 0 2.05-.434 2.81-1.212l5.58-5.788zm7.2 0h-2.64c-.62 0-1.23.129-1.79.38-.57.25-1.09.617-1.53 1.08l-5.21 5.54h2.78c1.04 0 2.05-.434 2.8-1.212l5.59-5.788zm7.19 0h-2.63c-.62 0-1.23.129-1.8.38-.57.25-1.08.617-1.52 1.08l-5.21 5.54h2.77c1.05 0 2.06-.434 2.81-1.212l5.58-5.788z" fill="#fff"/></g><path d="M1201 70v-1.207l-.85.853-11.01 11-.85.854H1201V70z" fill="#fff" stroke="#fff"/><ellipse cx="1128.97" cy="2.5" rx="2.501" ry="2.5" fill="#fff"/><path d="M1098.96 81h81.03L1201 60V2.5h-70.53" stroke="#fff"/><defs><clipPath id="clip0_821_1542"><path fill="#fff" transform="translate(942.393 77)" d="M0 0h155.065v7H0z"/></clipPath></defs></svg>
